X:1
T:Title
%%score { ( 1 4 ) | ( 2 3 ) }
L:1/8
M:6/8
K:D
V:1 treble nm="Grand Piano"
V:4 treble 
V:2 bass 
V:3 bass 
V:1
 z3 z2[Q:1/4=90] [Fd] | [Fd][DF][GB] [FA]DE | F [FA]2- [FA]2 [GB] | [FA]DG FC[CE] | %4
[M:5/8] D-D- D3 |[M:1/8] F |[M:3/4] [EF][EF] [EF][DF] [DB][Fd] | cc- c3 c | %8
 [^Ge]d [Ac][GB] [Gd][Ac] |[M:5/8] A-A- A3 |[M:1/8] A |[M:3/4] [Fd]4 z2 | [Gc]4 z2 | B>B BB cB | %14
 [FA]6 | [A,DF][A,DF] [A,DF]/[A,DF]/[A,EA] [A,EA][A,EA] |[M:7/8] [DB][DB]>D E/FF3/2B | %17
[M:3/4] AF d[Ec] [Fd][Ge] |[M:5/8] d2- [Gd-] [Fd]2 |] %19
V:2
 z3 z2 [D,A,] | [D,A,][D,A,][D,D] [D,D][F,A,][E,A,C] | [D,A,D] [D,D]2- [D,D]2 [D,D] | %3
 [D,D][F,A,][G,B,D] [A,D][A,,G,A,][A,,G,] |[M:5/8] [D,F,]-[D,F,]- [D,F,]3 |[M:1/8] [D,A,D] | %6
[M:3/4] [C,^A,][C,A,] [C,A,][B,,B,] [B,,B,][B,,B,] | [F,^A,F][F,A,F]- [F,A,F]3 [F,A,F] | %8
 B,-[B,^G] E [E,E]2 [E,E] |[M:5/8] [A,CE][A,C][A,D] [A,E]2 |[M:1/8] G | %11
[M:3/4] [D,A,]>D, D,D,[K:treble] FF | A,>A, A, [A,CE]2 [A,CE] | %13
 [A,CG]>[A,CG] [A,CG][A,CG] [A,EG][A,CG] | [D,D]>D, D, D,2 D, | D,D, D,/D,/C, C,C, | %16
[M:7/8] [B,,F,][B,,F,]>[G,B,] [G,B,D]/[F,^A,C][F,A,C]3/2[K:treble][G,B,D] | %17
[M:3/4] [A,D][A,D] [A,F][K:bass][A,,A,] [A,,A,][A,,A,] |[M:5/8] A,2 B, A,2 |] %19
V:3
 x6 | x6 | x6 | x6 |[M:5/8] x5 |[M:1/8] x |[M:3/4] x6 | x6 | E,4 z2 |[M:5/8] x5 |[M:1/8] x | %11
[M:3/4] x4[K:treble] x2 | x6 | x6 | x6 | x6 |[M:7/8] x6[K:treble] x |[M:3/4] x3[K:bass] x3 | %18
[M:5/8] D,-D,- D,3 |] %19
V:4
 x6 | x6 | x6 | x6 |[M:5/8] x5 |[M:1/8] x |[M:3/4] x6 | x6 | x6 |[M:5/8] z EF G2 |[M:1/8] x | %11
[M:3/4] z z/ A,/ A,A, cB | E>E E G2 G | x6 | z z/ D/ D D2 [A,EG] | x6 |[M:7/8] x7 |[M:3/4] x6 | %18
[M:5/8] F2 z z2 |] %19

